X: 103
T: POLKA: Tom Mhic's No. 1
C: C: Trad.; S: ThZCh; Polca an Rí; Brendan Begley
C: Set Leaders: Oliushka, Anton, Sophie
Z: Anton Zille ed.; Bregolas at The Session
N: https://www.soundslice.com/slices/R1QCc/
N: https://thesession.org/members/26966/sets/76527
R: Polka
M: 2/4
L: 1/8
Q: 1/4=140
K: Dmaj
|:d2 cd/c/|BA FA|B2 Bc|BA FA|
de/d/ cd/c/|BA FD|EF GC|1 ED FA:|2 ED DA,||
|:D>E FA|BA FD|EF GE|BA FA|
D>E FA|BA FD|EF GC|1 ED D2:|2 ED FA||

